src/Pure/16/symbolic/actions/view-pin-symbolic.svg

<svg height="16" width="16" xmlns="http://www.w3.org/2000/svg">
    <path d="M5 1l1 1v4L4 8h7L9 6V2l1-1zm2 8v4.75a16.197 16.197 0 0 0 .5 1.5 18.757 18.757 0 0 0 .5-1.5V9z" color="#000" fill="#363636"/>
</svg>

<?xml version="1.0" encoding="UTF-8" standalone="no"?>
<svg
   height="16"
   width="16"
   version="1.1"
   id="svg1"
   sodipodi:docname="view-pin-symbolic.svg"
   inkscape:version="1.4.2 (ebf0e940d0, 2025-05-08)"
   xmlns:inkscape="http://www.inkscape.org/namespaces/inkscape"
   xmlns:sodipodi="http://sodipodi.sourceforge.net/DTD/sodipodi-0.dtd"
   xmlns="http://www.w3.org/2000/svg"
   xmlns:svg="http://www.w3.org/2000/svg">
  <defs
      id="defs1">
      <style
          id="current-color-scheme"
          type="text/css">
          .ColorScheme-Text { color:#363636; }
          .ColorScheme-NegativeText { color:#da4453; }
      </style>
  </defs>
  <sodipodi:namedview
     id="namedview1"
     pagecolor="#ffffff"
     bordercolor="#000000"
     borderopacity="0.25"
     inkscape:showpageshadow="2"
     inkscape:pageopacity="0.0"
     inkscape:pagecheckerboard="0"
     inkscape:deskcolor="#d1d1d1"
     inkscape:zoom="49.6875"
     inkscape:cx="8"
     inkscape:cy="8"
     inkscape:window-width="1920"
     inkscape:window-height="1010"
     inkscape:window-x="0"
     inkscape:window-y="0"
     inkscape:window-maximized="1"
     inkscape:current-layer="svg1" />
  <path
     id="path1"
     style="fill:currentColor"
     class="ColorScheme-Text"
     d="M 5 1 L 6 2 L 6 6 L 4 8 L 11 8 L 9 6 L 9 2 L 10 1 L 5 1 z M 7 9 L 7 13.75 A 16.197 16.197 0 0 0 7.5 15.25 A 18.757 18.757 0 0 0 8 13.75 L 8 9 L 7 9 z " />
</svg>
